X: 1
T: Democratic Rage Hornpipe
R: hornpipe
Z: 2009 John Chambers <jc:trillian.mit.edu>
S: printed MS of unknown origin (with chords)
M: C|
L: 1/8
K: Bb
F2 \
| "Bb"B2Bc BFDF | BcdB "Eb"edcB | "Bb"Bdfg "Gm"fdBd | "Cm"edcB "F7"AcAF |
| "Bb"B2Bc BFDF | BcdB "Eb"edcB | "Bb"Bdfg "F7"fcAc | "Bb"B2d2 B2 :|
|: de \
| "Bb"f2fg fdfb | "Eb"g2ga gfga | "Bb"bagf "Gm"edcB | "F7"ABcA F2de |
| "Bb"f2fg fdfb | "Eb"g2ga gfga | "Bb"bfdB "F7"ecAc | "Bb"B2d2 B2 :|
